papirus/32x32/apps/maps.svg

<?xml version="1.0" encoding="UTF-8" standalone="no"?>
<!-- Created with Inkscape (http://www.inkscape.org/) -->

<svg
   xmlns:dc="http://purl.org/dc/elements/1.1/"
   xmlns:cc="http://creativecommons.org/ns#"
   xmlns:rdf="http://www.w3.org/1999/02/22-rdf-syntax-ns#"
   xmlns:svg="http://www.w3.org/2000/svg"
   xmlns="http://www.w3.org/2000/svg"
   xmlns:sodipodi="http://sodipodi.sourceforge.net/DTD/sodipodi-0.dtd"
   xmlns:inkscape="http://www.inkscape.org/namespaces/inkscape"
   id="svg4430"
   height="32"
   width="32"
   version="1.1"
   viewBox="0 0 32 32.000001"
   inkscape:version="0.91 r13725"
   sodipodi:docname="maps.svg">
  <defs
     id="defs17" />
  <sodipodi:namedview
     pagecolor="#ffffff"
     bordercolor="#666666"
     borderopacity="1"
     objecttolerance="10"
     gridtolerance="10"
     guidetolerance="10"
     inkscape:pageopacity="0"
     inkscape:pageshadow="2"
     inkscape:window-width="1600"
     inkscape:window-height="849"
     id="namedview15"
     showgrid="false"
     inkscape:zoom="7.375"
     inkscape:cx="-11.661017"
     inkscape:cy="16"
     inkscape:window-x="0"
     inkscape:window-y="0"
     inkscape:window-maximized="1"
     inkscape:current-layer="svg4430" />
  <metadata
     id="metadata4435">
    <rdf:RDF>
      <cc:Work
         rdf:about="">
        <dc:format>image/svg+xml</dc:format>
        <dc:type
           rdf:resource="http://purl.org/dc/dcmitype/StillImage" />
        <dc:title />
      </cc:Work>
    </rdf:RDF>
  </metadata>
  <rect
     style="fill:#e9e5dc"
     x="-31.000025"
     y="-29"
     width="28"
     height="28"
     transform="matrix(0,-1,-1,0,0,0)"
     rx="1.5"
     ry="1.5"
     id="rect4255" />
  <path
     style="opacity:0.1;fill:#ffffff"
     inkscape:connector-curvature="0"
     d="M 2.5,3 C 1.669,3 1,3.669 1,4.5 l 0,1 C 1,4.669 1.669,4 2.5,4 l 25,0 C 28.331,4 29,4.669 29,5.5 l 0,-1 C 29,3.669 28.331,3 27.5,3 l -25,0 z"
     id="rect4632" />
  <path
     style="fill:#2095f2;fill-rule:evenodd"
     inkscape:connector-curvature="0"
     d="M 2.4,31 15,18.4 27.6,31 Z"
     id="path4419" />
  <path
     style="fill:#1ea362;fill-rule:evenodd"
     inkscape:connector-curvature="0"
     d="M 29,29.6 16.4,17 29,4.4 Z"
     id="path4421" />
  <path
     inkscape:connector-curvature="0"
     d="m 16.238,15.7 -2.4766,2.4766 12.764,12.762 0.97461,0 c 0.831,0 1.5,-0.669 1.5,-1.5 l 0,-0.9746 -12.762,-12.764 z"
     style="color:#000000;text-indent:0;text-decoration:none;text-decoration-line:none;text-decoration-style:solid;text-decoration-color:#000000;text-transform:none;block-progression:tb;white-space:normal;isolation:auto;mix-blend-mode:normal;solid-color:#000000;fill:#feea3a;fill-rule:evenodd;color-rendering:auto;image-rendering:auto;shape-rendering:auto"
     id="path4423" />
  <path
     inkscape:connector-curvature="0"
     d="M 26.525,3 1,28.5 1,29.4746 c 0,0.831 0.669,1.5 1.5,1.5 l 0.97461,0 25.525,-25.6 0,-0.9746 c 0,-0.831 -0.669,-1.5 -1.5,-1.5 l -0.97461,0 z"
     style="color:#000000;text-indent:0;text-decoration:none;text-decoration-line:none;text-decoration-style:solid;text-decoration-color:#000000;text-transform:none;block-progression:tb;white-space:normal;isolation:auto;mix-blend-mode:normal;solid-color:#000000;fill:#ffffff;fill-rule:evenodd;color-rendering:auto;image-rendering:auto;shape-rendering:auto"
     id="path4425" />
  <path
     inkscape:connector-curvature="0"
     d="m 23,3 c -4.4183,0 -8.0001,3.517 -8.0001,7.8553 0,0.2711 0.02272,0.5214 0.04992,0.7855 0.02192,0.2628 0.05728,0.5282 0.1,0.7855 0.91598,5.5214 4.6501,9.4316 7.8502,12.574 3.2,-3.1421 6.934,-7.0523 7.85,-12.574 0.04272,-0.2573 0.07808,-0.5227 0.1,-0.7855 0.02736,-0.2641 0.04992,-0.5144 0.04992,-0.7855 C 30.99994,6.517 27.41814,3 22.99984,3 Z"
     style="color:#000000;opacity:0.2;enable-background:new"
     id="path4177" />
  <path
     inkscape:connector-curvature="0"
     d="m 23,2 c -4.4183,0 -8.0001,3.517 -8.0001,7.8553 0,0.2711 0.02272,0.5214 0.04992,0.7855 0.02192,0.2628 0.05728,0.5282 0.1,0.7855 0.91598,5.5214 4.6501,9.4316 7.8502,12.574 3.2,-3.1421 6.934,-7.0523 7.85,-12.574 0.04272,-0.2573 0.07808,-0.5227 0.1,-0.7855 0.02736,-0.2641 0.04992,-0.5144 0.04992,-0.7855 C 30.99994,5.517 27.41814,2 22.99984,2 Z"
     style="color:#000000;fill:#f34235;enable-background:new"
     id="path4547" />
  <path
     id="path4155"
     style="color:#000000;opacity:0.2;fill:#000000;fill-opacity:1;enable-background:new"
     d="m 23,7 c 1.6568,0 3,1.3432 3,3 0,1.6569 -1.3431,3 -3,3 -1.6569,0 -3,-1.3431 -3,-3 0,-1.6568 1.3431,-3 3,-3 z"
     inkscape:connector-curvature="0" />
  <path
     inkscape:connector-curvature="0"
     d="m 23,6 c 1.6568,0 3,1.3432 3,3 0,1.6569 -1.3431,3 -3,3 -1.6569,0 -3,-1.3431 -3,-3 0,-1.6568 1.3431,-3 3,-3 z"
     style="color:#000000;fill:#ffffff;enable-background:new"
     id="path4549" />
  <path
     style="opacity:0.3"
     inkscape:connector-curvature="0"
     d="m 1,28.5 0,1 C 1,30.331 1.669,31 2.5,31 l 25,0 c 0.831,0 1.5,-0.669 1.5,-1.5 l 0,-1 c 0,0.831 -0.669,1.5 -1.5,1.5 l -25,0 C 1.669,30 1,29.331 1,28.5 Z"
     id="rect4379" />
</svg>

<svg height="32" viewBox="0 0 32 32.000001" width="32" xmlns="http://www.w3.org/2000/svg"><rect fill="#e9e5dc" height="28" rx="1.5" transform="matrix(0 -1 -1 0 0 0)" width="28" x="-31.000025" y="-29"/><path d="m2.5 3c-.831 0-1.5.669-1.5 1.5v1c0-.831.669-1.5 1.5-1.5h25c .831 0 1.5.669 1.5 1.5v-1c0-.831-.669-1.5-1.5-1.5z" fill="#fff" opacity=".1"/><path d="m2.4 31l12.6-12.6 12.6 12.6z" fill="#2095f2" fill-rule="evenodd"/><path d="m29 29.6l-12.6-12.6 12.6-12.6z" fill="#1ea362" fill-rule="evenodd"/><path d="m16.238 15.7l-2.4766 2.4766 12.764 12.762h.97461c.831 0 1.5-.669 1.5-1.5v-.9746l-12.762-12.764z" fill="#feea3a" fill-rule="evenodd"/><path d="m26.525 3l-25.525 25.5v.9746c0 .831.669 1.5 1.5 1.5h.97461l25.525-25.6v-.9746c0-.831-.669-1.5-1.5-1.5h-.97461z" fill="#fff" fill-rule="evenodd"/><path d="m23 3c-4.4183 0-8.0001 3.517-8.0001 7.8553 0 .2711.02272.5214.04992.7855.02192.2628.05728.5282.1.7855.91598 5.5214 4.6501 9.4316 7.8502 12.574 3.2-3.1421 6.934-7.0523 7.85-12.574.04272-.2573.07808-.5227.1-.7855.02736-.2641.04992-.5144.04992-.7855 0-4.3383-3.5818-7.8553-8.0001-7.8553z" opacity=".2"/><path d="m23 2c-4.4183 0-8.0001 3.517-8.0001 7.8553 0 .2711.02272.5214.04992.7855.02192.2628.05728.5282.1.7855.91598 5.5214 4.6501 9.4316 7.8502 12.574 3.2-3.1421 6.934-7.0523 7.85-12.574.04272-.2573.07808-.5227.1-.7855.02736-.2641.04992-.5144.04992-.7855 0-4.3383-3.5818-7.8553-8.0001-7.8553z" fill="#f34235"/><path d="m23 7c1.6568 0 3 1.3432 3 3 0 1.6569-1.3431 3-3 3-1.6569 0-3-1.3431-3-3 0-1.6568 1.3431-3 3-3z" opacity=".2"/><path d="m23 6c1.6568 0 3 1.3432 3 3 0 1.6569-1.3431 3-3 3-1.6569 0-3-1.3431-3-3 0-1.6568 1.3431-3 3-3z" fill="#fff"/><path d="m1 28.5v1c0 .831.669 1.5 1.5 1.5h25c .831 0 1.5-.669 1.5-1.5v-1c0 .831-.669 1.5-1.5 1.5h-25c-.831 0-1.5-.669-1.5-1.5z" opacity=".3"/></svg>
